X:99
T: Waldvoegeleins Bitte
N: A0115
O: Europa, Mitteleuropa, Deutschland
N: Melodie aus Gerle, Tabulatur 1546.
R: Romanze, Ballade, Lied
M: 4/2
L: 1/4
K: F
F2 | F2G2A2B2 | c3cc2
c2 | d2c2c2B2 | c4z2
c2 | c2c2d2B2 | c4B2
A2 | G2A2c2c2- | c2BAG4 | F4z2
c2 | c4B2 | A4G2 | F4F2 | G4z2
F2 | F2G2A2B2 | c3dc2
c2 | A3Bcdc2- | c2BAG4 | F6

@@@ Tune index: 99
